build/system/RefuseViewOutline.svg

<svg xmlns="http://www.w3.org/2000/svg" fill="none" viewBox="0 0 24 24" focusable="false"><path d="M0 0H24V24H0z"/><path fill="#74767B" d="M3 12C3 7.02944 7.02944 3 12 3C16.4285 3 20.11 6.19855 20.8603 10.4115C20.9177 10.734 20.6637 11.0458 20.3423 11.1093C19.9598 11.1849 19.6324 10.9025 19.5579 10.5198C18.8677 6.97542 15.7463 4.3 12 4.3C10.1084 4.3 8.37616 4.98207 7.03573 6.11369C8.91396 7.99208 10.39 9.47243 11.7779 10.8736C12.0214 11.1194 11.997 11.5202 11.7528 11.7653C11.5059 12.0131 11.0993 12.0367 10.8531 11.7881C9.44533 10.3668 7.9563 8.87293 6.11626 7.03269C4.9831 8.37354 4.3 10.107 4.3 12C4.3 15.7753 7.01697 18.916 10.6023 19.5735C10.9533 19.6378 11.1983 19.9984 11.1453 20.3514C11.093 20.7005 10.7861 20.9258 10.4383 20.865C6.21213 20.1256 3 16.4379 3 12Z"/><path fill="#74767B" d="M16 17.9598C16.9575 17.9598 17.7338 17.1836 17.7338 16.226C17.7338 15.2685 16.9575 14.4922 16 14.4922C15.0424 14.4922 14.2662 15.2685 14.2662 16.226C14.2662 17.1836 15.0424 17.9598 16 17.9598Z"/><path fill="#74767B" d="M16 17.9598C16.9575 17.9598 17.7338 17.1836 17.7338 16.226C17.7338 15.2685 16.9575 14.4922 16 14.4922C15.0424 14.4922 14.2662 15.2685 14.2662 16.226C14.2662 17.1836 15.0424 17.9598 16 17.9598Z"/><path fill="#74767B" fill-rule="evenodd" d="M16.0034 12.2441C13.5594 12.2441 11.9305 14.3169 11.2148 15.467C10.9329 15.92 10.9329 16.5085 11.2148 16.9615C11.9305 18.1116 13.5594 20.1845 16.0034 20.1845C18.4473 20.1845 20.0762 18.1116 20.7919 16.9615C21.0738 16.5085 21.0738 15.92 20.7919 15.467C20.0762 14.3169 18.4473 12.2441 16.0034 12.2441ZM12.3185 16.1539C12.6353 15.6448 13.1347 14.9664 13.7884 14.4269C14.4356 13.8929 15.1709 13.5441 16.0034 13.5441C16.8358 13.5441 17.5712 13.8929 18.2183 14.4269C18.8721 14.9664 19.3714 15.6448 19.6882 16.1539C19.6957 16.1659 19.7034 16.1866 19.7034 16.2143C19.7034 16.2419 19.6957 16.2626 19.6882 16.2746C19.3714 16.7837 18.8721 17.4621 18.2183 18.0016C17.5712 18.5356 16.8358 18.8844 16.0034 18.8844C15.1709 18.8844 14.4356 18.5356 13.7884 18.0016C13.1347 17.4621 12.6353 16.7837 12.3185 16.2746C12.3111 16.2626 12.3034 16.2419 12.3034 16.2143C12.3034 16.1866 12.3111 16.1659 12.3185 16.1539Z"/><path fill="#74767B" fill-rule="evenodd" d="M16.0034 12.2441C13.5594 12.2441 11.9305 14.3169 11.2148 15.467C10.9329 15.92 10.9329 16.5085 11.2148 16.9615C11.9305 18.1116 13.5594 20.1845 16.0034 20.1845C18.4473 20.1845 20.0762 18.1116 20.7919 16.9615C21.0738 16.5085 21.0738 15.92 20.7919 15.467C20.0762 14.3169 18.4473 12.2441 16.0034 12.2441ZM12.3185 16.1539C12.6353 15.6448 13.1347 14.9664 13.7884 14.4269C14.4356 13.8929 15.1709 13.5441 16.0034 13.5441C16.8358 13.5441 17.5712 13.8929 18.2183 14.4269C18.8721 14.9664 19.3714 15.6448 19.6882 16.1539C19.6957 16.1659 19.7034 16.1866 19.7034 16.2143C19.7034 16.2419 19.6957 16.2626 19.6882 16.2746C19.3714 16.7837 18.8721 17.4621 18.2183 18.0016C17.5712 18.5356 16.8358 18.8844 16.0034 18.8844C15.1709 18.8844 14.4356 18.5356 13.7884 18.0016C13.1347 17.4621 12.6353 16.7837 12.3185 16.2746C12.3111 16.2626 12.3034 16.2419 12.3034 16.2143C12.3034 16.1866 12.3111 16.1659 12.3185 16.1539Z"/></svg>

<svg xmlns="http://www.w3.org/2000/svg" fill="none" viewBox="0 0 24 24" focusable="false"><g fill="#74767B"><path d="M3 12c0-4.98 4.02-9 9-9 4.42 0 8.1 3.19 8.86 7.41.05.32-.2.63-.52.69-.39.08-.71-.2-.79-.59-.69-3.54-3.81-6.22-7.55-6.22-1.9 0-3.63.69-4.97 1.82 1.88 1.88 3.36 3.36 4.74 4.76.25.24.22.65-.02.89-.25.25-.66.27-.9.02-1.41-1.42-2.9-2.91-4.74-4.75A7.68 7.68 0 0 0 4.29 12c0 3.77 2.72 6.91 6.31 7.57.35.06.59.42.54.78-.05.35-.36.57-.71.51C6.21 20.12 3 16.43 3 12"/><path d="M16 17.95a1.73 1.73 0 0 0 0-3.46c-.96 0-1.74.77-1.74 1.73s.78 1.73 1.74 1.73"/><path fill-rule="evenodd" d="M16 12.24c-2.45 0-4.07 2.07-4.79 3.22-.28.46-.28 1.04 0 1.5.72 1.15 2.34 3.22 4.79 3.22 2.44 0 4.07-2.07 4.79-3.22.28-.46.28-1.04 0-1.5-.72-1.15-2.35-3.22-4.79-3.22m-3.69 3.91c.32-.51.82-1.19 1.47-1.73.65-.53 1.39-.88 2.22-.88s1.57.35 2.21.88c.66.54 1.16 1.22 1.47 1.73.01.01.02.03.02.06s-.01.05-.02.06c-.31.51-.81 1.19-1.47 1.73-.64.53-1.38.88-2.21.88s-1.57-.35-2.22-.88c-.65-.54-1.15-1.22-1.47-1.73 0-.01-.01-.03-.01-.06s.01-.05.01-.06"/></g></svg>
